icons/op-settings4-24.svg

<svg width="24" height="24" viewBox="0 0 24 24" fill="none" xmlns="http://www.w3.org/2000/svg">
<path d="M17.875 6.125V17.875H6.125V6.125H17.875ZM20 4H4V20H20V4ZM9.34375 15.7188H8.28125V8.28125H9.34375V15.7188ZM12.5312 15.7188H11.4688V8.28125H12.5312V15.7188ZM15.7188 15.7188H14.6562V8.28125H15.7188V15.7188ZM10.4062 9.875C10.4062 10.1562 10.1562 10.4062 9.875 10.4062H7.71875C7.4375 10.4062 7.1875 10.1562 7.1875 9.875C7.1875 9.5625 7.4375 9.34375 7.71875 9.34375H9.875C10.1562 9.34375 10.4062 9.5625 10.4062 9.875ZM13.5938 13.0625C13.5938 13.375 13.375 13.5938 13.0625 13.5938H10.9375C10.625 13.5938 10.4062 13.375 10.4062 13.0625C10.4062 12.7812 10.625 12.5312 10.9375 12.5312H13.0625C13.375 12.5312 13.5938 12.7812 13.5938 13.0625ZM16.8125 10.9375C16.8125 11.2188 16.5625 11.4688 16.2812 11.4688H14.125C13.8438 11.4688 13.5938 11.2188 13.5938 10.9375C13.5938 10.625 13.8438 10.4062 14.125 10.4062H16.2812C16.5625 10.4062 16.8125 10.625 16.8125 10.9375Z" fill="black"/>
</svg>

<svg xmlns="http://www.w3.org/2000/svg" width="24" height="24" viewBox="0 0 24 24"><path d="M17.875 6.125v11.75H6.125V6.125h11.75ZM20 4H4v16h16V4ZM9.344 15.719H8.281V8.281h1.063v7.438Zm3.187 0h-1.062V8.281h1.062v7.438Zm3.188 0h-1.063V8.281h1.063v7.438Zm-5.313-5.844c0 .281-.25.531-.531.531H7.719a.548.548 0 0 1-.531-.531c0-.313.25-.531.531-.531h2.156c.281 0 .531.218.531.531Zm3.188 3.187a.51.51 0 0 1-.532.532h-2.124a.51.51 0 0 1-.532-.532c0-.281.219-.531.532-.531h2.124c.313 0 .532.25.532.531Zm3.218-2.124c0 .281-.25.531-.531.531h-2.156a.548.548 0 0 1-.531-.531c0-.313.25-.532.531-.532h2.156c.281 0 .531.219.531.532Z"/></svg>
